svgs/arc.svg

<svg width="192" height="192" viewBox="0 0 192 192" fill="none" xmlns="http://www.w3.org/2000/svg">
<path d="M169.5 92C170.979 121.596 154.251 151.477 127 163.5C100.396 175.856 65.2954 170.284 43.5 149C22.6785 127.965 16.3114 92.9658 28 66C40.9769 37.5719 71.0723 19.8137 100 22.5" stroke="black" stroke-width="12" stroke-linecap="round" stroke-linejoin="round"/>
<path d="M62.9598 133.849C49.4133 119.555 45.288 97.9293 52.5169 79.1071C59.7457 60.2853 76.8964 47.9966 95.931 48C114.966 48.0031 132.113 60.2981 139.336 79.1227C146.559 97.947 142.427 119.57 128.875 133.859" stroke="black" stroke-width="12" stroke-linecap="round" stroke-linejoin="round"/>
<path d="M79.7172 115.44C72.9632 108.533 70.9064 98.0849 74.5108 88.991C78.1148 79.8967 86.6661 73.9592 96.1568 73.9609C105.647 73.9627 114.196 79.9031 117.798 88.9981C121.399 98.0935 119.339 108.541 112.582 115.444" stroke="black" stroke-width="12" stroke-linecap="round" stroke-linejoin="round"/>
</svg>

<svg width="192" height="192" viewBox="0 0 192 192" fill="none" xmlns="http://www.w3.org/2000/svg"><path d="M169.5 92c1.479 29.596-15.249 59.477-42.5 71.5-26.604 12.356-61.705 6.784-83.5-14.5C22.678 127.965 16.311 92.966 28 66c12.977-28.428 43.072-46.186 72-43.5" stroke="#000" stroke-width="12" stroke-linecap="round" stroke-linejoin="round"/><path d="M62.96 133.849c-13.547-14.294-17.672-35.92-10.443-54.742C59.746 60.285 76.897 47.997 95.93 48c19.035.003 36.182 12.298 43.405 31.123 7.223 18.824 3.091 40.447-10.461 54.736" stroke="#000" stroke-width="12" stroke-linecap="round" stroke-linejoin="round"/><path d="M79.717 115.44c-6.754-6.907-8.81-17.355-5.206-26.449 3.604-9.094 12.155-15.032 21.646-15.03 9.49.002 18.039 5.942 21.641 15.037 3.601 9.096 1.541 19.543-5.216 26.446" stroke="#000" stroke-width="12" stroke-linecap="round" stroke-linejoin="round"/></svg>
